src/static/logos/importio.svg

<?xml version="1.0" encoding="UTF-8" standalone="no"?>
<svg width="512px" height="152px" viewBox="0 0 512 152" version="1.1" xmlns="http://www.w3.org/2000/svg" xmlns:xlink="http://www.w3.org/1999/xlink" preserveAspectRatio="xMidYMid">
	<g>
		<path d="M511.891394,76.1964606 C511.908461,118.013673 478.02337,151.927467 436.205382,151.945309 C394.38817,151.962376 360.474376,118.076509 360.456533,76.259297 L360.456533,76.1964606 C360.439467,34.3784727 394.325333,0.464678788 436.142545,0.447612121 C477.959758,0.429769697 511.874327,34.3156364 511.891394,76.1328485 L511.891394,76.1964606" fill="#DB3975"></path>
		<path d="M406.217697,53.7894788 L418.556121,53.7894788 L418.556121,105.624824 L406.217697,105.624824 L406.217697,53.7894788 Z" fill="#FFFFFF"></path>
		<path d="M451.577018,107.178667 C435.405576,107.178667 424.619442,95.3615515 424.619442,79.4996364 C424.619442,63.638497 435.6096,52.2317576 451.054933,52.2317576 C465.463079,52.2317576 477.805382,62.2910061 477.904679,79.4996364 C477.905455,95.6718545 467.232582,107.178667 451.577018,107.178667 M450.957964,63.4298182 C443.175564,63.4298182 437.576145,69.6498424 437.576145,79.183903 C437.576145,89.8660848 444.113455,95.7734788 451.575467,95.7734788 C460.593648,95.7734788 465.155103,87.8941091 464.83937,79.2917333 C464.636121,70.6878061 459.658861,63.4298182 450.957964,63.4298182" fill="#FFFFFF"></path>
		<path d="M420.822109,41.5441455 C420.822109,46.0993939 417.131055,49.7896727 412.575806,49.7896727 C408.019782,49.7896727 404.332606,46.1009455 404.332606,41.5441455 C404.332606,36.9904485 408.020558,33.2970667 412.575806,33.2970667 C417.130279,33.2970667 420.822109,36.9904485 420.822109,41.5441455" fill="#FFFFFF"></path>
		<path d="M23.9546182,50.7275636 L39.2874667,50.7275636 L39.2665212,58.1476848 C44.4470303,51.6724364 53.6459636,48.9487515 59.7341091,48.9487515 C65.8261333,48.9487515 73.4681212,51.2806788 77.7448727,58.9249939 C80.3351273,55.2967758 87.0694788,48.9487515 98.4746667,48.9487515 C104.950691,48.9487515 111.168388,50.7640242 115.575467,55.5566545 C120.755976,61.257697 120.627976,68.1254788 120.627976,74.8598303 L120.627976,115.816727 L105.209018,115.816727 L105.209018,79.9154424 C105.209018,73.8265212 106.115879,63.5904 94.3259152,63.5904 C89.4052848,63.5904 85.3891879,66.3109818 83.3155879,69.6808727 C80.3351273,74.4750545 79.9464727,79.6547879 79.9464727,85.2262788 L79.9464727,115.818279 L64.5275152,115.818279 L64.5275152,79.5275636 C64.5275152,74.8613818 64.5275152,73.1756606 64.0093091,71.2354909 C62.8456727,66.9571879 59.4773333,63.5896242 54.0346182,63.5896242 C49.3699879,63.5896242 44.8372364,66.3094303 42.1158788,71.1028364 C39.3929697,76.156897 39.2649697,82.2465939 39.2649697,88.5922909 L39.2649697,115.816727 L23.8483394,115.816727 L23.9546182,50.7275636" fill="#4C4D4A"></path>
		<path d="M126.324364,50.8920242 L141.740218,50.8920242 L141.740218,56.8513939 C144.202473,54.2626909 149.386861,48.950303 159.491879,48.950303 C178.536727,48.950303 188.900073,66.0542061 188.900073,83.9315394 C188.900073,103.234715 176.85023,117.614933 159.491879,117.614933 C150.552824,117.614933 144.982109,113.342061 141.740218,110.357721 L141.740218,136.790885 L126.324364,136.790885 L126.324364,50.8920242 L126.324364,50.8920242 Z M157.418279,102.973285 C164.934594,102.973285 173.095564,97.7935515 173.095564,83.151903 C173.095564,66.9587394 161.824582,63.8510545 157.161503,63.8510545 C150.033842,63.8510545 141.874424,69.0323394 141.614545,82.8928 C141.352339,96.2381576 148.736776,102.973285 157.418279,102.973285 L157.418279,102.973285 Z" fill="#4C4D4A"></path>
		<path d="M227.169745,117.616485 C206.959709,117.616485 193.486352,102.842958 193.486352,83.0231273 C193.486352,63.1986424 207.219588,48.950303 226.520436,48.950303 C244.528873,48.950303 259.950933,61.5191273 260.078158,83.0231273 C260.078158,103.233939 246.729697,117.616485 227.169745,117.616485 M226.390109,62.9441939 C216.676073,62.9441939 209.680291,70.7180606 209.680291,82.6329212 C209.680291,95.9806061 217.839709,103.364267 227.169745,103.364267 C238.4384,103.364267 244.140218,93.5206788 243.753115,82.7624727 C243.493236,72.0104727 237.273212,62.9441939 226.390109,62.9441939" fill="#4C4D4A"></path>
		<path d="M280.078739,50.8920242 L280.078739,60.9722182 C282.020461,57.603103 286.297212,49.9564606 300.806982,50.3474424 L300.806982,66.2830545 C297.440194,66.4133818 291.60417,66.5413818 286.813867,70.1696 C280.205188,75.2228848 280.078739,81.8315636 280.078739,92.5835636 L280.078739,115.771733 L265.047661,115.771733 L265.047661,50.8920242 L280.078739,50.8920242" fill="#4C4D4A"></path>
		<path d="M2.41260606,50.7275636 L18.1860848,50.7275636 L18.1860848,115.858618 L2.41260606,115.858618 L2.41260606,50.7275636 Z" fill="#4C4D4A"></path>
		<path d="M21.0881939,35.0045091 C21.0881939,40.8273455 16.3661576,45.5470545 10.5448727,45.5470545 C4.72126061,45.5470545 0,40.8273455 0,35.0045091 C0,29.1832242 4.72048485,24.4604121 10.5448727,24.4604121 C16.3661576,24.4604121 21.0881939,29.1832242 21.0881939,35.0045091" fill="#4C4D4A"></path>
		<path d="M343.985648,65.4211879 L343.985648,63.104 L343.999612,63.104 L343.999612,51.9610182 L343.985648,51.9610182 L343.985648,51.1100121 L330.138376,51.1100121 L330.138376,29.2879515 L314.592194,29.2879515 L314.592194,51.1100121 L304.826958,51.1100121 L304.826958,65.4211879 L314.592194,65.4211879 L314.592194,95.0721939 C314.592194,101.551321 314.592194,105.69697 315.626279,108.288 C318.607515,116.188315 329.485188,116.188315 332.726303,116.188315 C336.228073,116.188315 339.335758,115.932315 343.999612,115.153455 L343.999612,102.067976 C341.798012,102.716509 339.852412,102.842958 337.516606,102.842958 C330.139927,102.842958 330.139927,99.3481697 330.139927,91.3136485 L330.139927,65.4211879 L343.985648,65.4211879" fill="#4C4D4A"></path>
	</g>
</svg>

<svg width="512" height="152" xmlns="http://www.w3.org/2000/svg" preserveAspectRatio="xMidYMid"><path d="M511.891 76.196c.017 41.818-33.868 75.731-75.686 75.75-41.817.016-75.73-33.87-75.748-75.687v-.063C360.439 34.378 394.325.465 436.143.448 477.96.43 511.874 34.316 511.89 76.133v.063" fill="#DB3975"/><path d="M406.218 53.79h12.338v51.835h-12.338V53.789zm45.359 53.389c-16.171 0-26.958-11.817-26.958-27.68 0-15.86 10.99-27.267 26.436-27.267 14.408 0 26.75 10.059 26.85 27.268 0 16.172-10.672 27.679-26.328 27.679m-.619-43.75c-7.782 0-13.382 6.22-13.382 15.755 0 10.682 6.537 16.59 14 16.59 9.018 0 13.58-7.88 13.263-16.482-.203-8.604-5.18-15.862-13.881-15.862m-30.136-21.886a8.244 8.244 0 01-8.246 8.246 8.24 8.24 0 01-8.243-8.246 8.244 8.244 0 1116.49 0" fill="#FFF"/><path d="M23.955 50.728h15.332l-.02 7.42c5.18-6.476 14.379-9.2 20.467-9.2 6.092 0 13.734 2.333 18.01 9.977 2.591-3.628 9.325-9.976 20.73-9.976 6.477 0 12.694 1.815 17.101 6.608 5.181 5.7 5.053 12.568 5.053 19.303v40.957h-15.419V79.915c0-6.088.907-16.325-10.883-16.325-4.92 0-8.937 2.721-11.01 6.09-2.98 4.795-3.37 9.975-3.37 15.546v30.592H64.528v-36.29c0-4.667 0-6.352-.519-8.293-1.163-4.278-4.532-7.645-9.974-7.645-4.665 0-9.198 2.72-11.92 7.513-2.722 5.054-2.85 11.144-2.85 17.49v27.224H23.848l.107-65.09m102.369.165h15.416v5.96c2.462-2.59 7.647-7.902 17.752-7.902 19.045 0 29.408 17.104 29.408 34.982 0 19.303-12.05 33.683-29.408 33.683-8.94 0-14.51-4.273-17.752-7.257v26.433h-15.416V50.892zm31.094 52.081c7.517 0 15.678-5.18 15.678-19.821 0-16.193-11.271-19.3-15.934-19.3-7.128 0-15.288 5.18-15.547 19.04-.263 13.346 7.122 20.081 15.803 20.081zm69.752 14.643c-20.21 0-33.684-14.773-33.684-34.593 0-19.824 13.734-34.073 33.034-34.073 18.009 0 33.43 12.57 33.558 34.073 0 20.21-13.348 34.593-32.908 34.593m-.78-54.672c-9.714 0-16.71 7.774-16.71 19.689 0 13.348 8.16 20.731 17.49 20.731 11.268 0 16.97-9.843 16.583-20.602-.26-10.752-6.48-19.818-17.363-19.818m53.689-12.052v10.08c1.941-3.369 6.218-11.016 20.728-10.625v15.936c-3.367.13-9.203.258-13.993 3.887-6.609 5.053-6.735 11.662-6.735 22.414v23.188h-15.031v-64.88h15.03M2.413 50.728h15.773v65.13H2.413v-65.13zm18.675-15.723c0 5.822-4.722 10.542-10.543 10.542C4.72 45.547 0 40.827 0 35.005S4.72 24.46 10.545 24.46c5.821 0 10.543 4.723 10.543 10.545m322.898 30.416v-2.317H344V51.961h-.014v-.851h-13.848V29.288h-15.546V51.11h-9.765v14.311h9.765v29.651c0 6.48 0 10.625 1.034 13.216 2.982 7.9 13.86 7.9 17.1 7.9 3.502 0 6.61-.256 11.274-1.035v-13.085c-2.202.649-4.148.775-6.483.775-7.377 0-7.377-3.495-7.377-11.53V65.422h13.846" fill="#4C4D4A"/></svg>
